X: 11791
T: The WEDDING DAY
Q: "Moderate."
%R: air, reel
B: W. Hamilton "Universal Tune-Book" Vol. 1 Glasgow 1844 p.179 #1
S: http://imslp.org/wiki/Hamilton's_Universal_Tune-Book_(Various)
Z: 2016 John Chambers <jc:trillian.mit.edu>
M: C
L: 1/16
K: G
% - - - - - - - - - - - - - - - - - - - - - - - - -
d3c |\
B2g2d2B2 A3GA2B2 | G4 G3A/B/ D4 E3F |\
G3AG2e2 d2B2A2G2 | (B4 A4) z4 d3c |\
B2g2d2B2 A3GA2B2 | G4 G3A/B/ D4 E3F |
G2g2f2e2 d2c2B2A2 | G12 d4 |\
d4 BcdB G4 c2e2 | d4 BcdB G6 A2 |\
B2d2e2f2 g3a/b/ e2^d2 | He12 e3f/g/ |\
d2B2B2B2 B4 edcB |
c2A2A2A2 A4 dcBA |\
G3FG2e2 d2G2c2B2 | (HB4 HA4) z4 d4 |\
d2B2B2B2 B4 edcB | c2A2A2A2 A4f4 |\
gd3d3e d2B2 dcBA | G8 z4 |]
% - - - - - - - - - - - - - - - - - - - - - - - - -

%%sep 1 1 500
%%sep 1 1 500

